X: 612
T: Puopuo bianda xifu
%%abc-version 2.0
%%abcx-abcm2ps-target-version 5.9.1 (29 Sep 2008)
%%abc-creator hum2abc beta
%%abcx-conversion-date 2013/10/02 07:52:30
%%abc-edited-by Helmut Schaffrath
%%humdrum-veritas 2376857061
%%humdrum-veritas-data 450134770
%%continueall 1
%%barnumbers 0
L: 1/16
M: 2/4
K: A
c c2 cB4 [I:setbarnb 1]| 
c e c BA4 | 
B B2 c B B2 A | 
B A G FE4 | 
E E2 F B B2 c | 
B c B AF4 | 
F F2 B B A2 F | 
E C E F A B G F | 
E F E CB,4 |]  



